dist/img/file.svg

<svg width="920" height="246" fill="none" xmlns="http://www.w3.org/2000/svg"><rect x=".714" y=".714" width="918.572" height="244.572" rx="11.82" fill="#82A2AF" stroke="#5D7985" stroke-width="1.428"/><path d="M319.885 141.686c-3.77 0-6.292-3.016-6.292-6.786 0-3.744 2.522-6.786 6.292-6.786 2.314 0 4.16 1.144 5.226 2.912l2.262-1.144c-1.508-2.548-4.212-4.238-7.488-4.238-5.148 0-8.84 4.134-8.84 9.256 0 5.148 3.692 9.282 8.84 9.282 3.276 0 5.98-1.69 7.488-4.264l-2.262-1.118c-1.066 1.742-2.912 2.886-5.226 2.886zm15.011-10.4c-1.3 0-2.392.52-3.198 1.378V125.8h-2.496V144h2.496v-6.994c0-2.34 1.222-3.25 2.756-3.25 1.456 0 2.626.962 2.626 3.406V144h2.47v-7.072c0-3.614-1.69-5.642-4.654-5.642zm12.595 0c-3.64 0-6.11 2.912-6.11 6.448 0 3.536 2.496 6.448 6.11 6.448 3.64 0 6.11-2.912 6.11-6.448 0-3.536-2.47-6.448-6.11-6.448zm0 10.426c-2.262 0-3.484-1.82-3.484-3.978 0-2.158 1.222-3.978 3.484-3.978 2.288 0 3.484 1.82 3.484 3.978 0 2.158-1.222 3.978-3.484 3.978zm13.787-10.426c-3.64 0-6.11 2.912-6.11 6.448 0 3.536 2.496 6.448 6.11 6.448 3.64 0 6.11-2.912 6.11-6.448 0-3.536-2.47-6.448-6.11-6.448zm0 10.426c-2.262 0-3.484-1.82-3.484-3.978 0-2.158 1.222-3.978 3.484-3.978 2.288 0 3.484 1.82 3.484 3.978 0 2.158-1.222 3.978-3.484 3.978zm17.141-1.716c-.156-1.976-1.612-2.834-4.472-3.354-2.028-.364-2.548-.936-2.548-1.612 0-.468.312-1.326 1.976-1.326.988 0 2.002.546 2.288 1.404l2.34-.806c-.208-.78-1.404-3.016-4.628-3.016-3.458 0-4.784 2.496-4.446 4.472.312 1.898 1.794 2.652 4.212 3.146 1.95.39 2.704.754 2.782 1.352.104.702-.546 1.508-2.21 1.508-1.69 0-2.522-.78-2.808-1.56l-2.34.832c.598 1.716 2.392 3.198 5.252 3.198s4.81-1.794 4.602-4.238zm12.972-1.014a6.74 6.74 0 00.104-1.248c0-3.536-1.95-6.448-5.59-6.448-3.64 0-6.032 2.912-6.032 6.448 0 3.536 2.47 6.448 6.11 6.448 2.314 0 4.108-1.17 5.122-2.938l-2.262-1.092c-.572.936-1.534 1.56-2.86 1.56-1.82 0-2.964-1.17-3.328-2.73h8.736zm-5.486-5.226c1.872 0 2.782 1.248 3.042 2.886h-6.344c.338-1.638 1.43-2.886 3.302-2.886zm19.919-2.496c-3.25 0-4.758 2.132-5.07 3.718l2.236.468c.364-1.326 1.404-1.924 2.652-1.976 1.066-.078 2.47.468 2.288 1.69-.13.884-1.508.988-3.12 1.404-2.574.676-4.29 1.404-4.576 3.874-.234 2.054 1.352 4.004 4.29 3.744 1.95-.182 3.016-1.118 3.484-1.664V144h2.444v-8.138c0-3.328-2.002-4.602-4.628-4.602zm2.184 7.384c0 1.976-1.872 3.198-3.146 3.302-1.378.104-1.846-.416-1.924-.988-.078-.494.052-1.56 2.288-2.132 1.664-.416 2.782-.728 2.782-.728v.546zm15.083-12.844c-1.56.494-2.34 1.768-2.34 4.056v1.612h-1.456v2.262h1.456V144h2.496v-10.27h2.262v-2.262h-2.262v-1.586c0-.936.208-1.482.754-1.716.468-.182 1.352 0 1.846.442l1.404-1.82c-.962-.936-2.86-1.378-4.16-.988zm5.013 18.2h2.47v-12.532h-2.47V144zm1.248-14.456c.78 0 1.43-.65 1.43-1.456 0-.78-.65-1.43-1.43-1.43-.806 0-1.456.65-1.456 1.43 0 .806.65 1.456 1.456 1.456zm3.901-5.044V144h2.496v-19.5h-2.496zm15.978 14.482a6.74 6.74 0 00.104-1.248c0-3.536-1.95-6.448-5.59-6.448-3.64 0-6.032 2.912-6.032 6.448 0 3.536 2.47 6.448 6.11 6.448 2.314 0 4.108-1.17 5.122-2.938l-2.262-1.092c-.572.936-1.534 1.56-2.86 1.56-1.82 0-2.964-1.17-3.328-2.73h8.736zm-5.486-5.226c1.872 0 2.782 1.248 3.042 2.886h-6.344c.338-1.638 1.43-2.886 3.302-2.886zm20.594-2.47c-3.562 0-6.032 2.886-6.032 6.474s2.47 6.448 6.032 6.448c3.588 0 6.11-2.86 6.11-6.448 0-3.588-2.522-6.474-6.11-6.474zm0 11.076c-2.574 0-4.134-2.028-4.134-4.602 0-2.574 1.56-4.654 4.134-4.654 2.574 0 4.212 2.08 4.212 4.654s-1.638 4.602-4.212 4.602zm13.835-11.076c-1.508 0-2.756.624-3.614 1.638v-1.456h-1.898V144h1.898v-6.76c0-2.756 1.404-4.082 3.328-4.082.312 0 .598.026.858.078l.364-1.898c-.312-.026-.624-.052-.936-.052zm19.263-5.486v7.384c-.936-1.17-2.34-1.898-4.134-1.898-3.588 0-5.876 2.886-5.876 6.474 0 3.562 2.288 6.422 5.876 6.422 1.794 0 3.198-.702 4.134-1.872V144h1.872v-18.2h-1.872zm-4.134 16.562c-2.574 0-3.978-2.028-3.978-4.602 0-2.574 1.404-4.654 3.978-4.654 2.574 0 4.056 2.08 4.056 4.654s-1.482 4.602-4.056 4.602zm14.248-11.076c-1.508 0-2.756.624-3.614 1.638v-1.456h-1.898V144h1.898v-6.76c0-2.756 1.404-4.082 3.328-4.082.312 0 .598.026.858.078l.364-1.898c-.312-.026-.624-.052-.936-.052zM519.533 144s-.026-5.85-.026-8.398c0-2.652-1.69-4.316-4.602-4.316-3.068 0-4.524 1.768-4.862 3.458l1.664.39c.312-1.066.936-2.158 3.146-2.158 2.392 0 2.834 1.378 2.86 2.236.026.832-.728 1.196-2.678 1.508-3.848.624-5.772 1.742-5.772 4.212 0 2.106 1.716 3.25 4.03 3.25 1.794 0 3.25-.728 4.368-1.69V144h1.872zm-6.084-1.586c-.624 0-2.21-.234-2.21-1.612 0-1.378 1.352-1.924 4.056-2.366.936-.156 1.742-.26 2.418-.39v.572c.026 2.262-1.82 3.796-4.264 3.796zm18.011-10.946v1.69c-.936-1.17-2.34-1.872-4.108-1.872-3.588 0-5.876 2.886-5.876 6.474 0 3.562 2.288 6.422 5.876 6.422 1.768 0 3.172-.702 4.108-1.872v1.014c0 3.146-1.508 4.732-4.056 4.732-1.508 0-2.964-.728-3.666-1.872l-1.56.936c1.014 1.664 3.042 2.756 5.226 2.756 3.77 0 5.954-2.392 5.954-6.396v-12.012h-1.898zm-4.108 10.894c-2.574 0-3.978-2.028-3.978-4.602 0-2.574 1.404-4.654 3.978-4.654 2.548 0 4.03 2.08 4.03 4.654s-1.482 4.602-4.03 4.602zM543.609 144h1.898v-12.532h-1.898V144zm.936-14.924c.598 0 1.066-.468 1.066-1.04 0-.598-.468-1.066-1.066-1.066-.572 0-1.04.468-1.04 1.066 0 .572.468 1.04 1.04 1.04zm9.449 12.714c-.78.65-1.82.624-2.236.286-.442-.39-.494-.988-.494-2.028v-6.682h2.652v-1.898h-2.652v-3.276l-1.898.52v2.756h-1.924v1.898h1.924v6.734c0 2.886 1.014 3.9 2.652 4.082.806.104 2.054-.234 2.938-.962l-.962-1.43zm15.59-10.504c-1.534 0-2.756.624-3.614 1.638V125.8h-1.898V144h1.898v-6.76c0-2.782 1.404-4.082 3.328-4.082 2.028 0 3.172 1.196 3.172 3.926V144h1.872v-6.916c0-4.602-2.262-5.798-4.758-5.798zm12.792 0c-3.562 0-5.954 2.886-5.954 6.474 0 3.562 2.548 6.422 6.11 6.422 2.288 0 4.056-1.118 5.096-2.886l-1.638-.806c-.754 1.17-1.898 1.872-3.458 1.872-2.34 0-3.9-1.69-4.16-3.952h9.646c0-.208.026-.442.026-.65 0-3.588-2.08-6.474-5.668-6.474zm0 1.82c2.158 0 3.38 1.456 3.744 3.432h-7.67c.39-1.976 1.794-3.432 3.926-3.432zm13.382-1.82c-1.508 0-2.756.624-3.614 1.638v-1.456h-1.898V144h1.898v-6.76c0-2.756 1.404-4.082 3.328-4.082.312 0 .598.026.858.078l.364-1.898c-.312-.026-.624-.052-.936-.052zm7.666 0c-3.562 0-5.954 2.886-5.954 6.474 0 3.562 2.548 6.422 6.11 6.422 2.288 0 4.056-1.118 5.096-2.886l-1.638-.806c-.754 1.17-1.898 1.872-3.458 1.872-2.34 0-3.9-1.69-4.16-3.952h9.646c0-.208.026-.442.026-.65 0-3.588-2.08-6.474-5.668-6.474zm0 1.82c2.158 0 3.38 1.456 3.744 3.432h-7.67c.39-1.976 1.794-3.432 3.926-3.432z" fill="#F2F4F5"/><rect x="15.777" y="13.777" width="888.445" height="218.445" rx="5.441" stroke="#BDCDD3" stroke-width="1.555" stroke-dasharray="3.11 3.11"/></svg>

<svg width="920" height="246" viewBox="0 0 920 246" fill="none" xmlns="http://www.w3.org/2000/svg">
<rect x="0.713841" y="0.713841" width="918.572" height="244.572" rx="11.8204" fill="#82A2AF" stroke="#5D7985" stroke-width="1.42768"/>
<path d="M319.885 141.686C316.115 141.686 313.593 138.67 313.593 134.9C313.593 131.156 316.115 128.114 319.885 128.114C322.199 128.114 324.045 129.258 325.111 131.026L327.373 129.882C325.865 127.334 323.161 125.644 319.885 125.644C314.737 125.644 311.045 129.778 311.045 134.9C311.045 140.048 314.737 144.182 319.885 144.182C323.161 144.182 325.865 142.492 327.373 139.918L325.111 138.8C324.045 140.542 322.199 141.686 319.885 141.686ZM334.896 131.286C333.596 131.286 332.504 131.806 331.698 132.664V125.8H329.202V144H331.698V137.006C331.698 134.666 332.92 133.756 334.454 133.756C335.91 133.756 337.08 134.718 337.08 137.162V144H339.55V136.928C339.55 133.314 337.86 131.286 334.896 131.286ZM347.491 131.286C343.851 131.286 341.381 134.198 341.381 137.734C341.381 141.27 343.877 144.182 347.491 144.182C351.131 144.182 353.601 141.27 353.601 137.734C353.601 134.198 351.131 131.286 347.491 131.286ZM347.491 141.712C345.229 141.712 344.007 139.892 344.007 137.734C344.007 135.576 345.229 133.756 347.491 133.756C349.779 133.756 350.975 135.576 350.975 137.734C350.975 139.892 349.753 141.712 347.491 141.712ZM361.278 131.286C357.638 131.286 355.168 134.198 355.168 137.734C355.168 141.27 357.664 144.182 361.278 144.182C364.918 144.182 367.388 141.27 367.388 137.734C367.388 134.198 364.918 131.286 361.278 131.286ZM361.278 141.712C359.016 141.712 357.794 139.892 357.794 137.734C357.794 135.576 359.016 133.756 361.278 133.756C363.566 133.756 364.762 135.576 364.762 137.734C364.762 139.892 363.54 141.712 361.278 141.712ZM378.419 139.996C378.263 138.02 376.807 137.162 373.947 136.642C371.919 136.278 371.399 135.706 371.399 135.03C371.399 134.562 371.711 133.704 373.375 133.704C374.363 133.704 375.377 134.25 375.663 135.108L378.003 134.302C377.795 133.522 376.599 131.286 373.375 131.286C369.917 131.286 368.591 133.782 368.929 135.758C369.241 137.656 370.723 138.41 373.141 138.904C375.091 139.294 375.845 139.658 375.923 140.256C376.027 140.958 375.377 141.764 373.713 141.764C372.023 141.764 371.191 140.984 370.905 140.204L368.565 141.036C369.163 142.752 370.957 144.234 373.817 144.234C376.677 144.234 378.627 142.44 378.419 139.996ZM391.391 138.982C391.469 138.566 391.495 138.15 391.495 137.734C391.495 134.198 389.545 131.286 385.905 131.286C382.265 131.286 379.873 134.198 379.873 137.734C379.873 141.27 382.343 144.182 385.983 144.182C388.297 144.182 390.091 143.012 391.105 141.244L388.843 140.152C388.271 141.088 387.309 141.712 385.983 141.712C384.163 141.712 383.019 140.542 382.655 138.982H391.391ZM385.905 133.756C387.777 133.756 388.687 135.004 388.947 136.642H382.603C382.941 135.004 384.033 133.756 385.905 133.756ZM405.824 131.26C402.574 131.26 401.066 133.392 400.754 134.978L402.99 135.446C403.354 134.12 404.394 133.522 405.642 133.47C406.708 133.392 408.112 133.938 407.93 135.16C407.8 136.044 406.422 136.148 404.81 136.564C402.236 137.24 400.52 137.968 400.234 140.438C400 142.492 401.586 144.442 404.524 144.182C406.474 144 407.54 143.064 408.008 142.518V144H410.452V135.862C410.452 132.534 408.45 131.26 405.824 131.26ZM408.008 138.644C408.008 140.62 406.136 141.842 404.862 141.946C403.484 142.05 403.016 141.53 402.938 140.958C402.86 140.464 402.99 139.398 405.226 138.826C406.89 138.41 408.008 138.098 408.008 138.098V138.644ZM423.091 125.8C421.531 126.294 420.751 127.568 420.751 129.856V131.468H419.295V133.73H420.751V144H423.247V133.73H425.509V131.468H423.247V129.882C423.247 128.946 423.455 128.4 424.001 128.166C424.469 127.984 425.353 128.166 425.847 128.608L427.251 126.788C426.289 125.852 424.391 125.41 423.091 125.8ZM428.104 144H430.574V131.468H428.104V144ZM429.352 129.544C430.132 129.544 430.782 128.894 430.782 128.088C430.782 127.308 430.132 126.658 429.352 126.658C428.546 126.658 427.896 127.308 427.896 128.088C427.896 128.894 428.546 129.544 429.352 129.544ZM433.253 124.5V144H435.749V124.5H433.253ZM449.231 138.982C449.309 138.566 449.335 138.15 449.335 137.734C449.335 134.198 447.385 131.286 443.745 131.286C440.105 131.286 437.713 134.198 437.713 137.734C437.713 141.27 440.183 144.182 443.823 144.182C446.137 144.182 447.931 143.012 448.945 141.244L446.683 140.152C446.111 141.088 445.149 141.712 443.823 141.712C442.003 141.712 440.859 140.542 440.495 138.982H449.231ZM443.745 133.756C445.617 133.756 446.527 135.004 446.787 136.642H440.443C440.781 135.004 441.873 133.756 443.745 133.756ZM464.339 131.286C460.777 131.286 458.307 134.172 458.307 137.76C458.307 141.348 460.777 144.208 464.339 144.208C467.927 144.208 470.449 141.348 470.449 137.76C470.449 134.172 467.927 131.286 464.339 131.286ZM464.339 142.362C461.765 142.362 460.205 140.334 460.205 137.76C460.205 135.186 461.765 133.106 464.339 133.106C466.913 133.106 468.551 135.186 468.551 137.76C468.551 140.334 466.913 142.362 464.339 142.362ZM478.174 131.286C476.666 131.286 475.418 131.91 474.56 132.924V131.468H472.662V144H474.56V137.24C474.56 134.484 475.964 133.158 477.888 133.158C478.2 133.158 478.486 133.184 478.746 133.236L479.11 131.338C478.798 131.312 478.486 131.286 478.174 131.286ZM497.437 125.8V133.184C496.501 132.014 495.097 131.286 493.303 131.286C489.715 131.286 487.427 134.172 487.427 137.76C487.427 141.322 489.715 144.182 493.303 144.182C495.097 144.182 496.501 143.48 497.437 142.31V144H499.309V125.8H497.437ZM493.303 142.362C490.729 142.362 489.325 140.334 489.325 137.76C489.325 135.186 490.729 133.106 493.303 133.106C495.877 133.106 497.359 135.186 497.359 137.76C497.359 140.334 495.877 142.362 493.303 142.362ZM507.551 131.286C506.043 131.286 504.795 131.91 503.937 132.924V131.468H502.039V144H503.937V137.24C503.937 134.484 505.341 133.158 507.265 133.158C507.577 133.158 507.863 133.184 508.123 133.236L508.487 131.338C508.175 131.312 507.863 131.286 507.551 131.286ZM519.533 144C519.533 144 519.507 138.15 519.507 135.602C519.507 132.95 517.817 131.286 514.905 131.286C511.837 131.286 510.381 133.054 510.043 134.744L511.707 135.134C512.019 134.068 512.643 132.976 514.853 132.976C517.245 132.976 517.687 134.354 517.713 135.212C517.739 136.044 516.985 136.408 515.035 136.72C511.187 137.344 509.263 138.462 509.263 140.932C509.263 143.038 510.979 144.182 513.293 144.182C515.087 144.182 516.543 143.454 517.661 142.492V144H519.533ZM513.449 142.414C512.825 142.414 511.239 142.18 511.239 140.802C511.239 139.424 512.591 138.878 515.295 138.436C516.231 138.28 517.037 138.176 517.713 138.046V138.618C517.739 140.88 515.893 142.414 513.449 142.414ZM531.46 131.468V133.158C530.524 131.988 529.12 131.286 527.352 131.286C523.764 131.286 521.476 134.172 521.476 137.76C521.476 141.322 523.764 144.182 527.352 144.182C529.12 144.182 530.524 143.48 531.46 142.31V143.324C531.46 146.47 529.952 148.056 527.404 148.056C525.896 148.056 524.44 147.328 523.738 146.184L522.178 147.12C523.192 148.784 525.22 149.876 527.404 149.876C531.174 149.876 533.358 147.484 533.358 143.48V131.468H531.46ZM527.352 142.362C524.778 142.362 523.374 140.334 523.374 137.76C523.374 135.186 524.778 133.106 527.352 133.106C529.9 133.106 531.382 135.186 531.382 137.76C531.382 140.334 529.9 142.362 527.352 142.362ZM543.609 144H545.507V131.468H543.609V144ZM544.545 129.076C545.143 129.076 545.611 128.608 545.611 128.036C545.611 127.438 545.143 126.97 544.545 126.97C543.973 126.97 543.505 127.438 543.505 128.036C543.505 128.608 543.973 129.076 544.545 129.076ZM553.994 141.79C553.214 142.44 552.174 142.414 551.758 142.076C551.316 141.686 551.264 141.088 551.264 140.048C551.264 139.112 551.264 136.07 551.264 133.366H553.916V131.468H551.264C551.264 129.752 551.264 128.192 551.264 128.192L549.366 128.712C549.366 128.712 549.366 129.726 549.366 131.468H547.442V133.366H549.366C549.366 135.992 549.366 138.956 549.366 140.1C549.366 142.986 550.38 144 552.018 144.182C552.824 144.286 554.072 143.948 554.956 143.22L553.994 141.79ZM569.584 131.286C568.05 131.286 566.828 131.91 565.97 132.924V125.8H564.072V144H565.97V137.24C565.97 134.458 567.374 133.158 569.298 133.158C571.326 133.158 572.47 134.354 572.47 137.084C572.47 138.956 572.47 144 572.47 144H574.342C574.342 144 574.342 141.244 574.342 137.084C574.342 132.482 572.08 131.286 569.584 131.286ZM582.376 131.286C578.814 131.286 576.422 134.172 576.422 137.76C576.422 141.322 578.97 144.182 582.532 144.182C584.82 144.182 586.588 143.064 587.628 141.296L585.99 140.49C585.236 141.66 584.092 142.362 582.532 142.362C580.192 142.362 578.632 140.672 578.372 138.41H588.018C588.018 138.202 588.044 137.968 588.044 137.76C588.044 134.172 585.964 131.286 582.376 131.286ZM582.376 133.106C584.534 133.106 585.756 134.562 586.12 136.538H578.45C578.84 134.562 580.244 133.106 582.376 133.106ZM595.758 131.286C594.25 131.286 593.002 131.91 592.144 132.924V131.468H590.246V144H592.144V137.24C592.144 134.484 593.548 133.158 595.472 133.158C595.784 133.158 596.07 133.184 596.33 133.236L596.694 131.338C596.382 131.312 596.07 131.286 595.758 131.286ZM603.424 131.286C599.862 131.286 597.47 134.172 597.47 137.76C597.47 141.322 600.018 144.182 603.58 144.182C605.868 144.182 607.636 143.064 608.676 141.296L607.038 140.49C606.284 141.66 605.14 142.362 603.58 142.362C601.24 142.362 599.68 140.672 599.42 138.41H609.066C609.066 138.202 609.092 137.968 609.092 137.76C609.092 134.172 607.012 131.286 603.424 131.286ZM603.424 133.106C605.582 133.106 606.804 134.562 607.168 136.538H599.498C599.888 134.562 601.292 133.106 603.424 133.106Z" fill="#F2F4F5"/>
<rect x="15.7773" y="13.7773" width="888.445" height="218.445" rx="5.44142" stroke="#BDCDD3" stroke-width="1.55469" stroke-dasharray="3.11 3.11"/>
</svg>
